X:1
T:Sit nomen Domini
T:Sit nomen Domini
T:Anonymous
T:Canon
T:Source : Collection of Catches, Canons & Glees---London---Longman & Broderip---1762-64. Editor : André Vierendeels (12/05/14).
T:Notes : Original clefs :G2, G2, F4 (C2, C4, F4) Music selected by Thomas Warren
C:Anonymous
%%score [ 1 2 3 ]
L:1/8
Q:1/4=120
M:2/2
K:D
V:1 treble nm="Alto" snm="A"
V:2 treble-8 nm="Tenor" snm="T"
V:3 bass nm="Bass" snm="B"
V:1
 z2 D2 F2 G2 | A4 E2 F2 | G4 F2 E2 |: F4 F2 F2 | E2 F2 G2 A2 | D2 E2 F2 G2 | A8- | A4 G4 | F8 | %9
w: Sit no- men|Do- mi- ni|be- ne- *|dic- tum, sit|no- men,- no- men|Do- mi- ni sit|be-|* ne-|dic-|
 E4 z4 | z8 | z2 A2 A2 A2 | A4 ^G4 | A4 F2 F2 | E4 AG FE | D8 | C2 C2 D4- | D2 CB, C4- | %18
w: tum,||sit be- ne|dic- *|tum ex hoc|ninc, nunc _ et _|us-|que in sae-||
 C2 B,A, B,3 B, | C4 FE DC | B,4 ED CB, | A,2 A,2 z4 | E2 C2 A,2 B,C | D8 | C2 A2 A2 GF | E3 E E4 | %26
w: * * * * cu|lum, ex _ hoc _|ninc, nunc _ et _|us- que,|ex hoc nunc et _|us-|que, us- que in _|sae- cu- lum,|
 z2 D2 F2 G2 | A4 E2 F2 | G4 F2 E2 :| F8 | !fermata!E8 |] %31
w: sit no- men|Do- mi- ni|be- ne- *|dic-|tum.|
V:2
 z8 | z2 A2 c2 d2 | e4 B2 c2 |: d4 c2 B2 | c4 c2 c2 | B2 c2 d2 e2 | A2 B2 c2 d2 | e8- | e4 d4 | %9
w: |Sit no- men|Do- mi- ni|be- ne- *|dic- tum, sit|no- men, no- men|Do- mi- ni eit|be-|* ne-|
 c8 | B4 z4 | z8 | z2 e2 e2 e2 | e4 ^d4 | e4 c2 c2 | B4 ed cB | A8 | ^G2 G2 A4- | A2 ^GF G4- | %19
w: dic-|tum,||sit be- ne|dic- *|tum, ex hoc|nunc, nunc _ et _|us-|que in sae-||
 G2 FE F3 F | G4 cB A^G | F4 BA ^GF | E2 E2 z4 | B2 ^G2 E2 FG | A8 | ^G2 e2 e2 dc | B3 B B4 | %27
w: * * * * cu-|lum, ex _ hoc _|nunc, nunc _ et _|us- que,|ex hoc nunc et _|us-|que, us- que in _|sae- cu- lum,|
 z2 A2 c2 d2 | e4 B2 c2 :| d4 c2 B2 | c4 !fermata!c4 |] %31
w: sit no- men|Do- mi- ni|be- ne- *|dic- tum.|
V:3
 z8 | z8 | z8 |: z2 D,2 F,2 G,2 | A,4 E,2 F,2 | G,4 F,2 E,2 | F,4 F,2 F,2 | E,2 F,2 G,2 A,2 | %8
w: |||Sit no- men|Do- mi- ni|be- ne- *|dic- tum, sit|no- men, no- men|
 D,2 E,2 F,2 G,2 | A,8- | A,4 G,4 | F,8 | E,4 z4 | z8 | z2 A,2 A,2 A,2 | A,4 ^G,4 | A,4 F,2 F,2 | %17
w: Do- mi- ni, sit|be-|* ne|dic-|tum,||sit be- ne|dic- *|tum _ ex|
 E,4 A,G, F,E, | D,8 | C,2 C,2 D,4- | D,2 C,B,, C,4- | C,2 B,,A,, B,,3 B,, | C,4 F,E, D,C, | %23
w: hoc nunc, _ et _|us-|que in sae-||* * * * cu-|lum, ex _ hoc _|
 B,,4 E,D, C,B,, | A,,2 A,,2 z4 | E,2 C,2 A,,2 B,,C, | D,8 | C,2 A,2 A,2 G,F, | E,3 E, E,4 :| %29
w: nunc, nunc _ et _|us- que,|ex hoc nunc et _|us-|que, us- que in _|sae- cu- lum,|
 z2 D,2 F,2 G,2 | A,3 A, !fermata!A,4 |] %31
w: sit no- men|Do- mi- ni.|

